libs/ui/packages/crypto-icons/src/svg/BCO.svg

<svg width="24" height="24" viewBox="0 0 24 24" fill="none">
<path d="M10.5915 15.6195L9.462 14.9835C9.177 15.3698 8.7135 15.621 8.1885 15.621C7.6635 15.621 7.1985 15.369 6.91425 14.9813L6.5475 15.189C6.58021 15.2674 6.59704 15.3515 6.597 15.4365C6.59592 15.5239 6.57765 15.6102 6.54322 15.6905C6.50879 15.7708 6.45888 15.8435 6.39633 15.9045C6.33379 15.9655 6.25985 16.0136 6.17872 16.046C6.09759 16.0785 6.01086 16.0946 5.9235 16.0935C5.5515 16.0935 5.25 15.7995 5.25 15.4365C5.25 15.0735 5.5515 14.7787 5.9235 14.7787C6.14025 14.7787 6.33225 14.8785 6.456 15.0338L6.816 14.8298C6.68845 14.6047 6.62152 14.3504 6.62175 14.0917C6.62175 13.2667 7.29075 12.5947 8.12775 12.5632V11.3977C7.3125 11.3662 6.66225 10.7115 6.66225 9.90825C6.66225 9.65325 6.72825 9.41175 6.8445 9.20175L6.462 8.98875C6.39835 9.07083 6.31668 9.13719 6.22332 9.1827C6.12995 9.22822 6.02737 9.25167 5.9235 9.25125C5.5515 9.25125 5.25 8.9565 5.25 8.5935C5.25 8.2305 5.5515 7.9365 5.9235 7.9365C6.2955 7.9365 6.597 8.2305 6.597 8.5935C6.597 8.6775 6.5805 8.7585 6.55125 8.832L6.94125 9.0495C7.21725 8.667 7.67325 8.418 8.1885 8.418C8.715 8.418 9.1785 8.6775 9.453 9.07275L10.6027 8.436C10.4978 8.232 10.4377 8.001 10.4377 7.75725C10.4377 6.95325 11.0813 6.29625 11.8928 6.24975V5.80875C11.7334 5.78895 11.5866 5.71196 11.4797 5.59209C11.3728 5.47222 11.313 5.31761 11.3115 5.157C11.3115 4.794 11.613 4.5 11.985 4.5C12.357 4.5 12.6585 4.794 12.6585 5.157C12.6585 5.49 12.405 5.7645 12.0765 5.80875V6.24975C12.888 6.29625 13.5315 6.95325 13.5315 7.75725C13.5315 8.00175 13.4715 8.2335 13.3657 8.43825L14.5133 9.084C14.6542 8.87347 14.8451 8.70111 15.0689 8.58229C15.2927 8.46346 15.5424 8.40187 15.7958 8.403C16.3275 8.403 16.7947 8.66775 17.0685 9.06975L17.4473 8.829C17.4179 8.75397 17.4028 8.67408 17.403 8.5935C17.403 8.2305 17.7045 7.9365 18.0765 7.9365C18.4485 7.9365 18.75 8.2305 18.75 8.5935C18.75 8.9565 18.4485 9.25125 18.0765 9.25125C17.9722 9.25163 17.8692 9.22794 17.7755 9.18203C17.6819 9.13611 17.6001 9.0692 17.5365 8.9865L17.1615 9.225C17.2642 9.426 17.3228 9.6525 17.3228 9.89325C17.3228 10.7115 16.6478 11.376 15.8115 11.3835V12.597C16.659 12.6045 17.343 13.278 17.343 14.1068C17.343 14.358 17.28 14.595 17.1683 14.8043L17.5538 15.0217C17.6177 14.9454 17.6977 14.884 17.788 14.842C17.8784 14.8 17.9769 14.7784 18.0765 14.7787C18.4485 14.7787 18.75 15.0735 18.75 15.4365C18.75 15.7995 18.4485 16.0935 18.0765 16.0935C17.9891 16.0946 17.9024 16.0785 17.8213 16.046C17.7402 16.0136 17.6662 15.9655 17.6037 15.9045C17.5411 15.8435 17.4912 15.7708 17.4568 15.6905C17.4224 15.6102 17.4041 15.5239 17.403 15.4365C17.4028 15.3463 17.4217 15.2571 17.4585 15.1747L17.0737 14.9573C16.7955 15.3548 16.3268 15.6165 15.7958 15.6165C15.27 15.6165 14.8057 15.36 14.526 14.9685L13.3755 15.6157C13.5007 15.837 13.572 16.092 13.572 16.3627C13.572 17.178 12.927 17.8463 12.1072 17.9078V18.1957C12.2605 18.2218 12.3997 18.3009 12.5005 18.4192C12.6012 18.5376 12.6572 18.6876 12.6585 18.843C12.6574 18.9304 12.6391 19.0167 12.6047 19.097C12.5703 19.1773 12.5204 19.25 12.4578 19.311C12.3953 19.372 12.3213 19.4201 12.2402 19.4525C12.1591 19.485 12.0724 19.5011 11.985 19.5C11.8976 19.5011 11.8109 19.485 11.7298 19.4525C11.6487 19.4201 11.5747 19.372 11.5122 19.311C11.4496 19.25 11.3997 19.1773 11.3653 19.097C11.3309 19.0167 11.3126 18.9304 11.3115 18.843C11.3115 18.4995 11.58 18.2182 11.9235 18.1882V17.9108C11.076 17.8793 10.398 17.1982 10.398 16.3627C10.398 16.0927 10.4677 15.84 10.5915 15.6195ZM10.689 15.4672C10.838 15.2636 11.0332 15.0982 11.2584 14.9845C11.4837 14.8709 11.7327 14.8122 11.985 14.8132C12.5175 14.8132 12.99 15.0705 13.278 15.4642L14.43 14.8155C14.3112 14.5982 14.249 14.3544 14.2493 14.1068C14.2493 13.3282 14.8523 12.6877 15.6278 12.6052V11.3752C14.8635 11.2927 14.2695 10.6613 14.2695 9.89325C14.2695 9.65925 14.3243 9.43725 14.4233 9.24075L13.2728 8.59275C12.9953 8.99925 12.5227 9.267 11.985 9.267C11.4465 9.267 10.9725 8.9985 10.695 8.592L9.5475 9.22725C9.65475 9.43125 9.7155 9.66225 9.7155 9.90825C9.7155 10.6913 9.0975 11.3333 8.3115 11.3932V12.567C9.11925 12.627 9.756 13.287 9.756 14.0917C9.756 14.3602 9.68475 14.6122 9.56025 14.832L10.689 15.4672ZM8.1885 14.8927C8.64225 14.8927 9.00975 14.5342 9.00975 14.0917C9.00975 13.6493 8.64225 13.2908 8.1885 13.2908C7.7355 13.2908 7.368 13.6493 7.368 14.0917C7.368 14.5342 7.7355 14.8927 8.1885 14.8927ZM8.1885 10.689C8.631 10.689 8.98875 10.3395 8.98875 9.909C8.98875 9.4785 8.63025 9.1275 8.1885 9.1275C7.74675 9.1275 7.389 9.477 7.389 9.90825C7.389 10.3395 7.74675 10.689 8.1885 10.689ZM11.985 8.54775C12.432 8.54775 12.795 8.19375 12.795 7.75725C12.795 7.32 12.432 6.966 11.985 6.966C11.5372 6.966 11.175 7.32 11.175 7.75725C11.175 8.19375 11.5372 8.54775 11.985 8.54775ZM15.7958 10.674C16.2383 10.674 16.596 10.3245 16.596 9.894C16.596 9.462 16.2375 9.1125 15.7958 9.1125C15.354 9.1125 14.9963 9.462 14.9963 9.89325C14.9963 10.3245 15.354 10.674 15.7958 10.674ZM15.7958 14.8973C16.2435 14.8973 16.6058 14.5433 16.6058 14.1068C16.6058 13.6695 16.2435 13.3155 15.7958 13.3155C15.3488 13.3155 14.9858 13.6695 14.9858 14.1068C14.9858 14.5433 15.3488 14.8973 15.7958 14.8973ZM11.985 17.175C12.444 17.175 12.816 16.8113 12.816 16.3635C12.816 15.9158 12.444 15.552 11.985 15.552C11.5252 15.552 11.1533 15.915 11.1533 16.3635C11.1533 16.812 11.5252 17.175 11.985 17.175ZM11.985 14.19C10.746 14.19 9.74175 13.2097 9.74175 12.0007C9.74175 10.7917 10.746 9.81075 11.9843 9.81075C13.224 9.81075 14.2283 10.7917 14.2283 12.0007C14.2283 13.2097 13.2232 14.1908 11.985 14.1908V14.19ZM11.985 12.8588C12.4702 12.8588 12.864 12.4747 12.864 12.0007C12.864 11.5267 12.4702 11.1428 11.985 11.1428C11.499 11.1428 11.1053 11.5267 11.1053 12.0007C11.1053 12.4747 11.499 12.8588 11.985 12.8588Z" fill="white"/>
<path d="M10.5915 15.6195L9.462 14.9835C9.177 15.3698 8.7135 15.621 8.1885 15.621C7.6635 15.621 7.1985 15.369 6.91425 14.9813L6.5475 15.189C6.58021 15.2674 6.59704 15.3515 6.597 15.4365C6.59592 15.5239 6.57765 15.6102 6.54322 15.6905C6.50879 15.7708 6.45888 15.8435 6.39633 15.9045C6.33379 15.9655 6.25985 16.0136 6.17872 16.046C6.09759 16.0785 6.01086 16.0946 5.9235 16.0935C5.5515 16.0935 5.25 15.7995 5.25 15.4365C5.25 15.0735 5.5515 14.7787 5.9235 14.7787C6.14025 14.7787 6.33225 14.8785 6.456 15.0338L6.816 14.8298C6.68845 14.6047 6.62152 14.3504 6.62175 14.0917C6.62175 13.2667 7.29075 12.5947 8.12775 12.5632V11.3977C7.3125 11.3662 6.66225 10.7115 6.66225 9.90825C6.66225 9.65325 6.72825 9.41175 6.8445 9.20175L6.462 8.98875C6.39835 9.07083 6.31668 9.13719 6.22332 9.1827C6.12995 9.22822 6.02737 9.25167 5.9235 9.25125C5.5515 9.25125 5.25 8.9565 5.25 8.5935C5.25 8.2305 5.5515 7.9365 5.9235 7.9365C6.2955 7.9365 6.597 8.2305 6.597 8.5935C6.597 8.6775 6.5805 8.7585 6.55125 8.832L6.94125 9.0495C7.21725 8.667 7.67325 8.418 8.1885 8.418C8.715 8.418 9.1785 8.6775 9.453 9.07275L10.6027 8.436C10.4978 8.232 10.4377 8.001 10.4377 7.75725C10.4377 6.95325 11.0813 6.29625 11.8928 6.24975V5.80875C11.7334 5.78895 11.5866 5.71196 11.4797 5.59209C11.3728 5.47222 11.313 5.31761 11.3115 5.157C11.3115 4.794 11.613 4.5 11.985 4.5C12.357 4.5 12.6585 4.794 12.6585 5.157C12.6585 5.49 12.405 5.7645 12.0765 5.80875V6.24975C12.888 6.29625 13.5315 6.95325 13.5315 7.75725C13.5315 8.00175 13.4715 8.2335 13.3657 8.43825L14.5133 9.084C14.6542 8.87347 14.8451 8.70111 15.0689 8.58229C15.2927 8.46346 15.5424 8.40187 15.7958 8.403C16.3275 8.403 16.7947 8.66775 17.0685 9.06975L17.4473 8.829C17.4179 8.75397 17.4028 8.67408 17.403 8.5935C17.403 8.2305 17.7045 7.9365 18.0765 7.9365C18.4485 7.9365 18.75 8.2305 18.75 8.5935C18.75 8.9565 18.4485 9.25125 18.0765 9.25125C17.9722 9.25163 17.8692 9.22794 17.7755 9.18203C17.6819 9.13611 17.6001 9.0692 17.5365 8.9865L17.1615 9.225C17.2642 9.426 17.3228 9.6525 17.3228 9.89325C17.3228 10.7115 16.6478 11.376 15.8115 11.3835V12.597C16.659 12.6045 17.343 13.278 17.343 14.1068C17.343 14.358 17.28 14.595 17.1683 14.8043L17.5538 15.0217C17.6177 14.9454 17.6977 14.884 17.788 14.842C17.8784 14.8 17.9769 14.7784 18.0765 14.7787C18.4485 14.7787 18.75 15.0735 18.75 15.4365C18.75 15.7995 18.4485 16.0935 18.0765 16.0935C17.9891 16.0946 17.9024 16.0785 17.8213 16.046C17.7402 16.0136 17.6662 15.9655 17.6037 15.9045C17.5411 15.8435 17.4912 15.7708 17.4568 15.6905C17.4224 15.6102 17.4041 15.5239 17.403 15.4365C17.4028 15.3463 17.4217 15.2571 17.4585 15.1747L17.0737 14.9573C16.7955 15.3548 16.3268 15.6165 15.7958 15.6165C15.27 15.6165 14.8057 15.36 14.526 14.9685L13.3755 15.6157C13.5007 15.837 13.572 16.092 13.572 16.3627C13.572 17.178 12.927 17.8463 12.1072 17.9078V18.1957C12.2605 18.2218 12.3997 18.3009 12.5005 18.4192C12.6012 18.5376 12.6572 18.6876 12.6585 18.843C12.6574 18.9304 12.6391 19.0167 12.6047 19.097C12.5703 19.1773 12.5204 19.25 12.4578 19.311C12.3953 19.372 12.3213 19.4201 12.2402 19.4525C12.1591 19.485 12.0724 19.5011 11.985 19.5C11.8976 19.5011 11.8109 19.485 11.7298 19.4525C11.6487 19.4201 11.5747 19.372 11.5122 19.311C11.4496 19.25 11.3997 19.1773 11.3653 19.097C11.3309 19.0167 11.3126 18.9304 11.3115 18.843C11.3115 18.4995 11.58 18.2182 11.9235 18.1882V17.9108C11.076 17.8793 10.398 17.1982 10.398 16.3627C10.398 16.0927 10.4677 15.84 10.5915 15.6195ZM10.689 15.4672C10.838 15.2636 11.0332 15.0982 11.2584 14.9845C11.4837 14.8709 11.7327 14.8122 11.985 14.8132C12.5175 14.8132 12.99 15.0705 13.278 15.4642L14.43 14.8155C14.3112 14.5982 14.249 14.3544 14.2493 14.1068C14.2493 13.3282 14.8523 12.6877 15.6278 12.6052V11.3752C14.8635 11.2927 14.2695 10.6613 14.2695 9.89325C14.2695 9.65925 14.3243 9.43725 14.4233 9.24075L13.2728 8.59275C12.9953 8.99925 12.5227 9.267 11.985 9.267C11.4465 9.267 10.9725 8.9985 10.695 8.592L9.5475 9.22725C9.65475 9.43125 9.7155 9.66225 9.7155 9.90825C9.7155 10.6913 9.0975 11.3333 8.3115 11.3932V12.567C9.11925 12.627 9.756 13.287 9.756 14.0917C9.756 14.3602 9.68475 14.6122 9.56025 14.832L10.689 15.4672ZM8.1885 14.8927C8.64225 14.8927 9.00975 14.5342 9.00975 14.0917C9.00975 13.6493 8.64225 13.2908 8.1885 13.2908C7.7355 13.2908 7.368 13.6493 7.368 14.0917C7.368 14.5342 7.7355 14.8927 8.1885 14.8927ZM8.1885 10.689C8.631 10.689 8.98875 10.3395 8.98875 9.909C8.98875 9.4785 8.63025 9.1275 8.1885 9.1275C7.74675 9.1275 7.389 9.477 7.389 9.90825C7.389 10.3395 7.74675 10.689 8.1885 10.689ZM11.985 8.54775C12.432 8.54775 12.795 8.19375 12.795 7.75725C12.795 7.32 12.432 6.966 11.985 6.966C11.5372 6.966 11.175 7.32 11.175 7.75725C11.175 8.19375 11.5372 8.54775 11.985 8.54775ZM15.7958 10.674C16.2383 10.674 16.596 10.3245 16.596 9.894C16.596 9.462 16.2375 9.1125 15.7958 9.1125C15.354 9.1125 14.9963 9.462 14.9963 9.89325C14.9963 10.3245 15.354 10.674 15.7958 10.674ZM15.7958 14.8973C16.2435 14.8973 16.6058 14.5433 16.6058 14.1068C16.6058 13.6695 16.2435 13.3155 15.7958 13.3155C15.3488 13.3155 14.9858 13.6695 14.9858 14.1068C14.9858 14.5433 15.3488 14.8973 15.7958 14.8973ZM11.985 17.175C12.444 17.175 12.816 16.8113 12.816 16.3635C12.816 15.9158 12.444 15.552 11.985 15.552C11.5252 15.552 11.1533 15.915 11.1533 16.3635C11.1533 16.812 11.5252 17.175 11.985 17.175ZM11.985 14.19C10.746 14.19 9.74175 13.2097 9.74175 12.0007C9.74175 10.7917 10.746 9.81075 11.9843 9.81075C13.224 9.81075 14.2283 10.7917 14.2283 12.0007C14.2283 13.2097 13.2232 14.1908 11.985 14.1908V14.19ZM11.985 12.8588C12.4702 12.8588 12.864 12.4747 12.864 12.0007C12.864 11.5267 12.4702 11.1428 11.985 11.1428C11.499 11.1428 11.1053 11.5267 11.1053 12.0007C11.1053 12.4747 11.499 12.8588 11.985 12.8588Z" fill="#2C76B7"/>
</svg>

<svg width="24" height="24" viewBox="0 0 24 24" fill="none"><path fill="#fff" d="m10.592 15.62-1.13-.636a1.58 1.58 0 0 1-1.274.637c-.525 0-.99-.252-1.274-.64l-.366.208a.64.64 0 0 1-.152.716.67.67 0 0 1-.473.188.665.665 0 0 1-.673-.656c0-.364.301-.658.673-.658.217 0 .41.1.533.255l.36-.204a1.5 1.5 0 0 1-.194-.738c0-.825.669-1.497 1.506-1.529v-1.165c-.816-.032-1.466-.687-1.466-1.49 0-.255.066-.496.183-.706l-.383-.213a.68.68 0 0 1-.538.262.666.666 0 0 1-.674-.657c0-.364.301-.657.673-.657s.674.293.674.657a.7.7 0 0 1-.046.238l.39.217a1.53 1.53 0 0 1 1.247-.631c.527 0 .99.26 1.265.655l1.15-.637a1.5 1.5 0 0 1-.165-.679c0-.804.643-1.46 1.455-1.507v-.441a.66.66 0 0 1-.582-.652c0-.363.302-.657.674-.657s.674.294.674.657a.664.664 0 0 1-.583.652v.44c.812.047 1.455.704 1.455 1.508 0 .245-.06.476-.165.681l1.147.646a1.53 1.53 0 0 1 1.283-.681c.532 0 .999.265 1.273.667l.378-.241a.6.6 0 0 1-.044-.236c0-.363.302-.657.674-.657.371 0 .673.294.673.658a.666.666 0 0 1-.674.657.68.68 0 0 1-.54-.264l-.375.238c.103.201.162.428.162.668 0 .818-.675 1.483-1.511 1.49v1.214c.847.008 1.531.681 1.531 1.51 0 .251-.063.488-.175.697l.386.218a.68.68 0 0 1 .523-.243c.371 0 .673.294.673.658a.665.665 0 0 1-.674.656.663.663 0 0 1-.673-.656q0-.137.056-.262l-.385-.218c-.279.398-.747.66-1.278.66-.526 0-.99-.257-1.27-.649l-1.15.648c.125.221.196.476.196.747 0 .815-.645 1.483-1.465 1.545v.288a.66.66 0 0 1 .552.647.666.666 0 0 1-.674.657.663.663 0 0 1-.673-.657c0-.343.268-.625.612-.655v-.277c-.848-.032-1.526-.713-1.526-1.548 0-.27.07-.523.194-.743m.097-.153a1.6 1.6 0 0 1 1.296-.654 1.6 1.6 0 0 1 1.293.651l1.152-.649a1.5 1.5 0 0 1-.18-.708c0-.779.602-1.42 1.378-1.502v-1.23c-.764-.082-1.358-.714-1.358-1.482 0-.234.054-.456.153-.652l-1.15-.648c-.278.406-.75.674-1.288.674a1.56 1.56 0 0 1-1.29-.675l-1.148.635c.108.204.168.435.168.681 0 .783-.617 1.425-1.403 1.485v1.174c.807.06 1.444.72 1.444 1.525 0 .268-.071.52-.196.74zm-2.5-.574a.81.81 0 0 0 .82-.801.81.81 0 0 0-.82-.801.81.81 0 0 0-.821.8.81.81 0 0 0 .82.802m0-4.204c.442 0 .8-.35.8-.78a.79.79 0 0 0-.8-.782.79.79 0 0 0-.8.781.79.79 0 0 0 .8.781m3.796-2.141a.8.8 0 0 0 .81-.79.8.8 0 0 0-.81-.792.8.8 0 0 0-.81.791.8.8 0 0 0 .81.79m3.81 2.126a.79.79 0 0 0 .801-.78.79.79 0 0 0-.8-.781.79.79 0 0 0-.8.78.79.79 0 0 0 .8.781m0 4.223a.8.8 0 0 0 .81-.79.8.8 0 0 0-.81-.791.8.8 0 0 0-.81.79.8.8 0 0 0 .81.791m-3.81 2.278a.82.82 0 0 0 .831-.812.82.82 0 0 0-.831-.811.82.82 0 0 0-.832.811c0 .449.372.812.832.812m0-2.985c-1.239 0-2.243-.98-2.243-2.19 0-1.208 1.004-2.19 2.242-2.19 1.24 0 2.244.982 2.244 2.19 0 1.21-1.005 2.19-2.243 2.19m0-1.331a.87.87 0 0 0 .879-.858.87.87 0 0 0-.879-.858.87.87 0 0 0-.88.858.87.87 0 0 0 .88.858"/><path fill="#2c76b7" d="m10.592 15.62-1.13-.636a1.58 1.58 0 0 1-1.274.637c-.525 0-.99-.252-1.274-.64l-.366.208a.64.64 0 0 1-.152.716.67.67 0 0 1-.473.188.665.665 0 0 1-.673-.656c0-.364.301-.658.673-.658.217 0 .41.1.533.255l.36-.204a1.5 1.5 0 0 1-.194-.738c0-.825.669-1.497 1.506-1.529v-1.165c-.816-.032-1.466-.687-1.466-1.49 0-.255.066-.496.183-.706l-.383-.213a.68.68 0 0 1-.538.262.666.666 0 0 1-.674-.657c0-.364.301-.657.673-.657s.674.293.674.657a.7.7 0 0 1-.046.238l.39.217a1.53 1.53 0 0 1 1.247-.631c.527 0 .99.26 1.265.655l1.15-.637a1.5 1.5 0 0 1-.165-.679c0-.804.643-1.46 1.455-1.507v-.441a.66.66 0 0 1-.582-.652c0-.363.302-.657.674-.657s.674.294.674.657a.664.664 0 0 1-.583.652v.44c.812.047 1.455.704 1.455 1.508 0 .245-.06.476-.165.681l1.147.646a1.53 1.53 0 0 1 1.283-.681c.532 0 .999.265 1.273.667l.378-.241a.6.6 0 0 1-.044-.236c0-.363.302-.657.674-.657.371 0 .673.294.673.658a.666.666 0 0 1-.674.657.68.68 0 0 1-.54-.264l-.375.238c.103.201.162.428.162.668 0 .818-.675 1.483-1.511 1.49v1.214c.847.008 1.531.681 1.531 1.51 0 .251-.063.488-.175.697l.386.218a.68.68 0 0 1 .523-.243c.371 0 .673.294.673.658a.665.665 0 0 1-.674.656.663.663 0 0 1-.673-.656q0-.137.056-.262l-.385-.218c-.279.398-.747.66-1.278.66-.526 0-.99-.257-1.27-.649l-1.15.648c.125.221.196.476.196.747 0 .815-.645 1.483-1.465 1.545v.288a.66.66 0 0 1 .552.647.666.666 0 0 1-.674.657.663.663 0 0 1-.673-.657c0-.343.268-.625.612-.655v-.277c-.848-.032-1.526-.713-1.526-1.548 0-.27.07-.523.194-.743m.097-.153a1.6 1.6 0 0 1 1.296-.654 1.6 1.6 0 0 1 1.293.651l1.152-.649a1.5 1.5 0 0 1-.18-.708c0-.779.602-1.42 1.378-1.502v-1.23c-.764-.082-1.358-.714-1.358-1.482 0-.234.054-.456.153-.652l-1.15-.648c-.278.406-.75.674-1.288.674a1.56 1.56 0 0 1-1.29-.675l-1.148.635c.108.204.168.435.168.681 0 .783-.617 1.425-1.403 1.485v1.174c.807.06 1.444.72 1.444 1.525 0 .268-.071.52-.196.74zm-2.5-.574a.81.81 0 0 0 .82-.801.81.81 0 0 0-.82-.801.81.81 0 0 0-.821.8.81.81 0 0 0 .82.802m0-4.204c.442 0 .8-.35.8-.78a.79.79 0 0 0-.8-.782.79.79 0 0 0-.8.781.79.79 0 0 0 .8.781m3.796-2.141a.8.8 0 0 0 .81-.79.8.8 0 0 0-.81-.792.8.8 0 0 0-.81.791.8.8 0 0 0 .81.79m3.81 2.126a.79.79 0 0 0 .801-.78.79.79 0 0 0-.8-.781.79.79 0 0 0-.8.78.79.79 0 0 0 .8.781m0 4.223a.8.8 0 0 0 .81-.79.8.8 0 0 0-.81-.791.8.8 0 0 0-.81.79.8.8 0 0 0 .81.791m-3.81 2.278a.82.82 0 0 0 .831-.812.82.82 0 0 0-.831-.811.82.82 0 0 0-.832.811c0 .449.372.812.832.812m0-2.985c-1.239 0-2.243-.98-2.243-2.19 0-1.208 1.004-2.19 2.242-2.19 1.24 0 2.244.982 2.244 2.19 0 1.21-1.005 2.19-2.243 2.19m0-1.331a.87.87 0 0 0 .879-.858.87.87 0 0 0-.879-.858.87.87 0 0 0-.88.858.87.87 0 0 0 .88.858"/></svg>
